src/ui/edit.svg

<?xml version="1.0" encoding="UTF-8"?><svg xmlns="http://www.w3.org/2000/svg" viewBox="0 0 32 32"><defs><style>.uuid-9574529b-91be-4a0c-a05c-60f195346814{fill:none;}.uuid-9574529b-91be-4a0c-a05c-60f195346814,.uuid-f7963a82-467e-425c-af61-b73833cc5e5d{stroke-width:0px;}.uuid-f7963a82-467e-425c-af61-b73833cc5e5d{fill:#151515;}</style></defs><g id="uuid-1d6be078-aa86-4553-89bf-2dfdd0e08d01"><rect class="uuid-9574529b-91be-4a0c-a05c-60f195346814" x="0" width="32" height="32"/></g><g id="uuid-17fabb7f-e9fe-4984-aec6-0b084d405286"><path class="uuid-f7963a82-467e-425c-af61-b73833cc5e5d" d="M30.3535,5.9395l-4.293-4.293c-.585-.585-1.5361-.585-2.1211,0L5.3027,20.2832c-.0869.0864-.1567.1885-.2065.3003L1.0864,29.5933c-.1685.3784-.0864.8213.2065,1.1138.1914.1919.4473.293.7075.293.1372,0,.2754-.0283.4062-.0864l9.0098-4.0098c.1118-.0498.2139-.1196.3003-.2065L30.3535,8.0605c.585-.585.585-1.5361,0-2.1211ZM11.0095,24.5759l-3.5854-3.5854,13.576-13.5764,3.5858,3.5858-13.5764,13.576ZM6.3318,22.7264l2.9418,2.9418-5.3015,2.3597,2.3597-5.3015ZM25.9999,9.5859l-3.5858-3.5858,2.5859-2.586,3.5859,3.5859-2.586,2.5859Z"/></g></svg>

<svg xmlns="http://www.w3.org/2000/svg" viewBox="0 0 32 32">
  <path d="M0 0h32v32H0z" fill="none"/>
  <path d="M30.354 5.94 26.06 1.646a1.501 1.501 0 0 0-2.122 0L5.303 20.284a.993.993 0 0 0-.207.3l-4.01 9.01a1 1 0 0 0 1.32 1.32l9.01-4.01a.993.993 0 0 0 .3-.206L30.355 8.06a1.501 1.501 0 0 0 0-2.12ZM11.009 24.575 7.424 20.99 21 7.414 24.586 11 11.01 24.576Zm-4.677-1.85 2.942 2.942-5.302 2.36 2.36-5.302ZM26 9.586 22.414 6 25 3.414 28.586 7 26 9.586Z" fill="#151515"/>
</svg>
